src/assets/icon-wechat.svg

<?xml version="1.0" encoding="UTF-8"?>
<svg width="18px" height="15px" viewBox="0 0 18 15" version="1.1" xmlns="http://www.w3.org/2000/svg" xmlns:xlink="http://www.w3.org/1999/xlink">
    <title>icon_微信</title>
    <g id="移动端" stroke="none" stroke-width="1" fill="none" fill-rule="evenodd">
        <g id="藏品展示-3D" transform="translate(-149.000000, -1193.000000)" fill="#FFFFFF" fill-rule="nonzero">
            <g id="编组-2" transform="translate(98.000000, 1178.000000)">
                <g id="编组" transform="translate(51.000000, 13.000000)">
                    <g id="icon_微信" transform="translate(0.000000, 2.000000)">
                        <path d="M16.65,15 C16.5825,15 16.50375,14.9779412 16.43625,14.9448529 L15.255,14.3382353 C14.41125,14.7683823 13.46625,15 12.4875,15 C9.45000002,15 6.97500001,12.8272059 6.97500001,10.1470588 C6.97500001,7.46691176 9.45000002,5.29411764 12.4875,5.29411764 C15.525,5.29411764 18,7.46691176 18,10.1470588 C18,11.2169118 17.595,12.2647059 16.8525,13.1139706 L17.08875,14.4926471 C17.1225,14.6580882 17.04375,14.8235294 16.90875,14.9227941 C16.83,14.9669118 16.74,15 16.65,15 L16.65,15 Z M12.4875,6.17647058 C9.94500001,6.17647058 7.875,7.95220588 7.875,10.1470588 C7.875,12.3419118 9.94499999,14.1176471 12.4875,14.1176471 C13.39875,14.1176471 14.27625,13.8860294 15.03,13.4558824 C15.165,13.3786765 15.33375,13.3786765 15.46875,13.4448529 L16.05375,13.7426471 L15.93,13.0367647 C15.9075,12.9044118 15.9525,12.7610294 16.0425,12.6617647 C16.7175,11.9558823 17.1,11.0514706 17.1,10.1360294 C17.1,7.95220588 15.03,6.17647058 12.4875,6.17647058 L12.4875,6.17647058 Z" id="形状"></path>
                        <path d="M9.7875,8.92279411 C9.78745693,9.15924802 9.91610178,9.37775851 10.1249652,9.49599766 C10.3338286,9.6142368 10.5911714,9.6142368 10.8000348,9.49599766 C11.0088982,9.37775851 11.1375431,9.15924802 11.1375,8.92279411 C11.1375431,8.6863402 11.0088982,8.46782971 10.8000348,8.34959056 C10.5911714,8.23135142 10.3338286,8.23135142 10.1249652,8.34959056 C9.91610178,8.46782971 9.78745693,8.6863402 9.7875,8.92279411 Z" id="路径"></path>
                        <path d="M13.8375,8.92279411 C13.8375,9.28827667 14.1397078,9.58455882 14.5125,9.58455882 C14.8852922,9.58455882 15.1875,9.28827667 15.1875,8.92279411 C15.1875,8.55731155 14.8852922,8.2610294 14.5125,8.2610294 C14.1397078,8.2610294 13.8375,8.55731155 13.8375,8.92279411 Z" id="路径"></path>
                        <path d="M3.48749999,3.95955883 C3.48745348,4.23541929 3.63753995,4.49034438 3.88121241,4.62828778 C4.12488486,4.76623118 4.42511514,4.76623118 4.6687876,4.62828778 C4.91246005,4.49034438 5.06254653,4.23541929 5.06250001,3.95955883 C5.06254653,3.68369837 4.91246005,3.42877328 4.6687876,3.29082988 C4.42511514,3.15288648 4.12488486,3.15288648 3.88121241,3.29082988 C3.63753995,3.42877328 3.48745348,3.68369837 3.48749999,3.95955883 Z" id="路径"></path>
                        <path d="M8.21249999,3.95955883 C8.21249999,4.23538889 8.36259663,4.49026639 8.60624999,4.62818142 C8.84990334,4.76609646 9.15009666,4.76609646 9.39375001,4.62818142 C9.63740337,4.49026639 9.78750001,4.23538889 9.78750001,3.95955883 C9.78750001,3.68372877 9.63740337,3.42885128 9.39375001,3.29093624 C9.15009666,3.15302121 8.84990334,3.15302121 8.60624999,3.29093624 C8.36259663,3.42885128 8.21249999,3.68372877 8.21249999,3.95955883 Z" id="路径"></path>
                        <path d="M1.55250002,11.6691176 C1.46250001,11.6691176 1.36125001,11.6360294 1.28250001,11.5808823 C1.1475,11.4816176 1.08,11.3161765 1.1025,11.1507353 L1.40625001,9.43014705 C0.494999997,8.40441176 0,7.13602942 0,5.83455882 C0,2.61397059 2.98125001,0 6.6375,0 C8.38125,0 10.02375,0.584558825 11.2725,1.66544118 C12.5325,2.74632353 13.24125,4.19117647 13.275,5.74632352 C13.275,5.86764706 13.23,5.98897059 13.14,6.07720589 C13.05,6.16544119 12.92625,6.20955884 12.8025,6.1985294 C12.69,6.18749999 12.58875,6.18749999 12.49875,6.18749999 C9.95625002,6.18749999 7.88625,7.96323529 7.88625,10.1580882 C7.88625,10.4558823 7.93125,10.7647059 8.01000001,11.0625 C8.04375001,11.1838235 8.02125001,11.3161765 7.95375,11.4264706 C7.88625,11.5367647 7.7625,11.6029412 7.63874999,11.6139706 C7.3125,11.6580882 6.98624999,11.6801471 6.66,11.6801471 C5.45624999,11.6801471 4.29749999,11.3933824 3.27375,10.8639706 L1.78875,11.6360294 C1.69875,11.6470588 1.62,11.6691176 1.55250002,11.6691176 Z M3.25125,9.90441178 C3.33,9.90441178 3.40875,9.9264706 3.47625,9.95955881 C4.5225,10.5551471 5.76000001,10.8419117 7.02000001,10.7647059 C6.98625001,10.5551471 6.97500001,10.3455882 6.97500001,10.1360294 C6.97500001,7.5 9.37125001,5.34926471 12.34125,5.28308823 C12.02625,2.81250001 9.57375,0.871323522 6.6375,0.871323522 C3.47625,0.871323522 0.900000013,3.08823529 0.900000013,5.82352941 C0.900000013,6.97058824 1.37250001,8.09558824 2.21625,8.97794117 C2.3175,9.07720588 2.35125,9.22058824 2.32875,9.35294119 L2.14875,10.4117647 L3.04875001,9.9485294 C3.11625001,9.92647058 3.18375001,9.90441175 3.25125,9.90441178 L3.25125,9.90441178 Z" id="形状"></path>
                    </g>
                </g>
            </g>
        </g>
    </g>
</svg>

<svg xmlns="http://www.w3.org/2000/svg" xmlns:xlink="http://www.w3.org/1999/xlink" width="18" height="15" xmlns:v="https://vecta.io/nano"><g fill="#fff"><path d="M16.65 15a.52.52 0 0 1-.214-.055l-1.181-.607a6.09 6.09 0 0 1-2.767.662c-3.037 0-5.512-2.173-5.512-4.853s2.475-4.853 5.512-4.853S18 7.467 18 10.147c0 1.07-.405 2.118-1.148 2.967l.236 1.379c.034.165-.045.331-.18.43-.079.044-.169.077-.259.077h0zm-4.162-8.824c-2.542 0-4.613 1.776-4.613 3.971s2.07 3.971 4.613 3.971a5.13 5.13 0 0 0 2.542-.662c.135-.077.304-.077.439-.011l.585.298-.124-.706a.46.46 0 0 1 .113-.375c.675-.706 1.058-1.61 1.058-2.526 0-2.184-2.07-3.96-4.613-3.96h0zm-2.7 2.747a.66.66 0 0 0 .337.573.69.69 0 0 0 .675 0 .66.66 0 0 0 .337-.573.66.66 0 0 0-.337-.573.69.69 0 0 0-.675 0 .66.66 0 0 0-.337.573zm4.05 0a.67.67 0 0 0 .675.662.67.67 0 0 0 .675-.662.67.67 0 0 0-.675-.662.67.67 0 0 0-.675.662z"/><use xlink:href="#B"/><use xlink:href="#B" x="4.725"/><path d="M1.553 11.669a.49.49 0 0 1-.27-.088c-.135-.099-.203-.265-.18-.43l.304-1.721C.495 8.404 0 7.136 0 5.835 0 2.614 2.981 0 6.638 0c1.744 0 3.386.585 4.635 1.665 1.26 1.081 1.969 2.526 2.002 4.081 0 .121-.045.243-.135.331a.43.43 0 0 1-.338.121c-.113-.011-.214-.011-.304-.011-2.542 0-4.612 1.776-4.612 3.971 0 .298.045.607.124.904.034.121.011.254-.056.364s-.191.176-.315.188c-.326.044-.652.066-.979.066-1.204 0-2.363-.287-3.386-.816l-1.485.772c-.09.011-.169.033-.236.033zm1.699-1.765a.52.52 0 0 1 .225.055 6.39 6.39 0 0 0 3.544.805 3.94 3.94 0 0 1-.045-.629c0-2.636 2.396-4.787 5.366-4.853C12.026 2.813 9.574.871 6.638.871 3.476.871.9 3.088.9 5.824c0 1.147.472 2.272 1.316 3.154.101.099.135.243.112.375l-.18 1.059.9-.463c.067-.022.135-.044.202-.044h0z"/></g><defs ><path id="B" d="M3.487 3.96a.77.77 0 0 0 .394.669.8.8 0 0 0 .788 0 .77.77 0 0 0 .394-.669.77.77 0 0 0-.394-.669.8.8 0 0 0-.788 0 .77.77 0 0 0-.394.669z"/></defs></svg>
